web/public/images/3p-logos/layer0.svg

<svg viewBox="0 0 48 48" fill="none" xmlns="http://www.w3.org/2000/svg">
<path d="M46.8475 30.7151L23.9476 41.9564L1.04773 30.7151L23.9476 19.4739L46.8475 30.7151Z" fill="#E95495"/>
<path d="M23.9476 43.0001C23.7887 43.0002 23.6317 42.9646 23.4885 42.8957L0.588612 31.6545C0.412198 31.569 0.263418 31.4356 0.159316 31.2695C0.0552143 31.1034 0 30.9114 0 30.7154C0 30.5194 0.0552143 30.3273 0.159316 30.1612C0.263418 29.9951 0.412198 29.8617 0.588612 29.7763L23.4676 18.535C23.611 18.4665 23.7678 18.4309 23.9267 18.4309C24.0856 18.4309 24.2425 18.4665 24.3858 18.535L47.3066 29.7763C47.483 29.8617 47.6318 29.9951 47.7359 30.1612C47.84 30.3273 47.8952 30.5194 47.8952 30.7154C47.8952 30.9114 47.84 31.1034 47.7359 31.2695C47.6318 31.4356 47.483 31.569 47.3066 31.6545L24.4067 42.8957C24.2635 42.9646 24.1065 43.0002 23.9476 43.0001V43.0001ZM3.41979 30.7154L23.9476 40.7949L44.4824 30.7154L23.9476 20.6358L3.41979 30.7154Z" fill="black"/>
<g opacity="0.38">
<path opacity="0.38" d="M46.8475 24.4964L23.9476 35.7376L1.04773 24.4964L23.9476 13.2551L46.8475 24.4964Z" fill="white"/>
</g>
<path d="M23.9476 36.7881C23.7881 36.7859 23.6312 36.7478 23.4885 36.6768L0.588579 25.4564C0.414025 25.3702 0.267061 25.2369 0.1643 25.0716C0.0615392 24.9063 0.00708008 24.7155 0.00708008 24.5208C0.00708008 24.3261 0.0615392 24.1353 0.1643 23.97C0.267061 23.8047 0.414025 23.6714 0.588579 23.5852L23.4676 12.3231C23.6099 12.251 23.7672 12.2134 23.9267 12.2134C24.0862 12.2134 24.2435 12.251 24.3858 12.3231L47.3066 23.5643C47.4811 23.6505 47.6281 23.7838 47.7308 23.9491C47.8336 24.1145 47.8881 24.3053 47.8881 24.4999C47.8881 24.6946 47.8336 24.8854 47.7308 25.0507C47.6281 25.2161 47.4811 25.3494 47.3066 25.4356L24.4067 36.6768C24.2639 36.7478 24.107 36.7859 23.9476 36.7881V36.7881ZM3.41976 24.4965L23.9476 34.576L44.4823 24.4965L23.9476 14.4169L3.41976 24.4965Z" fill="black"/>
<g opacity="0.38">
<path opacity="0.38" d="M46.8475 18.2845L23.9476 29.5257L1.04773 18.2845L23.9476 7.04321L46.8475 18.2845Z" fill="white"/>
</g>
<path d="M23.9476 30.5691C23.7816 30.5725 23.6172 30.5368 23.4676 30.4648L0.588579 19.1957C0.414025 19.1095 0.267061 18.9763 0.1643 18.8109C0.0615392 18.6456 0.00708008 18.4548 0.00708008 18.2601C0.00708008 18.0654 0.0615392 17.8747 0.1643 17.7093C0.267061 17.544 0.414025 17.4107 0.588579 17.3245L23.4676 6.10412C23.6109 6.03558 23.7678 6 23.9267 6C24.0856 6 24.2425 6.03558 24.3858 6.10412L47.3066 17.3454C47.4811 17.4316 47.6281 17.5648 47.7308 17.7302C47.8336 17.8955 47.8881 18.0863 47.8881 18.281C47.8881 18.4757 47.8336 18.6664 47.7308 18.8318C47.6281 18.9971 47.4811 19.1304 47.3066 19.2166L24.4067 30.4648C24.2634 30.5337 24.1065 30.5693 23.9476 30.5691ZM3.41976 18.2845L23.9476 28.364L44.4823 18.2845L23.9476 8.2049L3.41976 18.2845Z" fill="black"/>
</svg>

<svg fill="none" viewBox="0 0 48 48" xmlns="http://www.w3.org/2000/svg"><path d="m46.847 30.715-22.9 11.241-22.9-11.24 22.9-11.242z" fill="#e95495"/><path d="M23.948 43c-.16 0-.316-.035-.46-.104L.589 31.655a1.044 1.044 0 0 1 0-1.879l22.88-11.241a1.065 1.065 0 0 1 .918 0l22.92 11.241a1.043 1.043 0 0 1 0 1.879l-22.9 11.24c-.142.07-.3.105-.458.105zM3.42 30.715l20.528 10.08 20.534-10.08-20.534-10.08z" fill="#000"/><path d="m46.847 24.496-22.9 11.242-22.9-11.242 22.9-11.24z" fill="#fff" opacity=".144"/><path d="M23.948 36.788a1.064 1.064 0 0 1-.46-.111l-22.9-11.22a1.044 1.044 0 0 1 0-1.872l22.88-11.262a1.016 1.016 0 0 1 .918 0l22.92 11.241a1.044 1.044 0 0 1 0 1.872l-22.9 11.24c-.142.072-.299.11-.458.112zM3.42 24.497l20.528 10.079 20.534-10.08-20.534-10.08z" fill="#000"/><path d="m46.847 18.285-22.9 11.24-22.9-11.24 22.9-11.242z" fill="#fff" opacity=".144"/><path d="M23.948 30.57a1.057 1.057 0 0 1-.48-.105L.588 19.195a1.043 1.043 0 0 1 0-1.87l22.88-11.22a1.064 1.064 0 0 1 .918 0l22.92 11.24a1.043 1.043 0 0 1 0 1.872l-22.9 11.248c-.143.069-.3.104-.458.104zM3.42 18.283l20.528 10.08 20.534-10.08-20.534-10.08z" fill="#000"/></svg>
